build/img/icon-feature_gift.svg

<svg width="16" height="12" viewBox="0 0 16 12" xmlns="http://www.w3.org/2000/svg">
<path d="M15.0857 1.06548L14.6567 0.636479C14.1847 0.16398 13.4122 0.16398 12.9402 0.636479L5.64716 7.92948L3.05966 5.34248C2.58816 4.87048 1.81516 4.87048 1.34366 5.34298L0.91466 5.77148C0.44316 6.24348 0.44316 7.01598 0.91466 7.48798L4.78666 11.363C5.25866 11.8355 6.03116 11.8355 6.50316 11.363L15.0857 2.78198C15.5562 2.30998 15.5562 1.53748 15.0857 1.06548Z"/>
</svg>

<svg width="16" height="12" xmlns="http://www.w3.org/2000/svg"><path d="M15.086 1.065l-.43-.429a1.216 1.216 0 00-1.716 0L5.647 7.93 3.06 5.342a1.216 1.216 0 00-1.716.001l-.43.428a1.218 1.218 0 000 1.717l3.873 3.875a1.216 1.216 0 001.716 0l8.583-8.581a1.22 1.22 0 000-1.717z"/></svg>
